assets/icons/user.svg

<?xml version="1.0" encoding="UTF-8"?>
<svg width="50px" height="50px" viewBox="0 0 50 50" version="1.1" xmlns="http://www.w3.org/2000/svg" xmlns:xlink="http://www.w3.org/1999/xlink">
    <!-- Generator: Sketch 59.1 (86144) - https://sketch.com -->
    <title>user</title>
    <desc>Created with Sketch.</desc>
    <g id="Page-1" stroke="none" stroke-width="1" fill="none" fill-rule="evenodd">
        <g id="quote_form" transform="translate(-455.000000, -50.000000)" fill="#C6C4C4" fill-rule="nonzero">
            <g id="timeline" transform="translate(215.000000, 50.000000)">
                <g id="user" transform="translate(240.000000, 0.000000)">
                    <path d="M42.6777344,32.3222656 C39.9547852,29.5994141 36.7137695,27.5836914 33.1776367,26.3634766 C36.9649414,23.7549805 39.453125,19.3894531 39.453125,14.453125 C39.453125,6.48369141 32.9694336,0 25,0 C17.0305664,0 10.546875,6.48369141 10.546875,14.453125 C10.546875,19.3894531 13.0350586,23.7549805 16.8224609,26.3634766 C13.2863281,27.5836914 10.0453125,29.5994141 7.32236328,32.3222656 C2.60048828,37.0442383 0,43.3222656 0,50 L3.90625,50 C3.90625,38.3688477 13.3688477,28.90625 25,28.90625 C36.6311523,28.90625 46.09375,38.3688477 46.09375,50 L50,50 C50,43.3222656 47.3995117,37.0442383 42.6777344,32.3222656 Z M25,25 C19.1844727,25 14.453125,20.26875 14.453125,14.453125 C14.453125,8.6375 19.1844727,3.90625 25,3.90625 C30.8155273,3.90625 35.546875,8.6375 35.546875,14.453125 C35.546875,20.26875 30.8155273,25 25,25 Z" id="Shape"></path>
                </g>
            </g>
        </g>
    </g>
</svg>

<svg xmlns="http://www.w3.org/2000/svg" width="50" height="50" viewBox="0 0 50 50"><path fill="#C6C4C4" d="M42.678 32.322a24.904 24.904 0 0 0-9.5-5.959c3.787-2.608 6.275-6.974 6.275-11.91C39.453 6.483 32.97 0 25 0S10.547 6.484 10.547 14.453c0 4.936 2.488 9.302 6.275 11.91a24.904 24.904 0 0 0-9.5 5.96C2.6 37.043 0 43.322 0 50h3.906c0-11.631 9.463-21.094 21.094-21.094 11.631 0 21.094 9.463 21.094 21.094H50c0-6.678-2.6-12.956-7.322-17.678zM25 25c-5.816 0-10.547-4.731-10.547-10.547 0-5.816 4.731-10.547 10.547-10.547 5.816 0 10.547 4.731 10.547 10.547C35.547 20.27 30.816 25 25 25z"/></svg>
